svg/origin.svg

<?xml version="1.0" ?><svg height="250px" version="1.1" viewBox="0 0 250 250" width="250px" xmlns="http://www.w3.org/2000/svg" xmlns:xlink="http://www.w3.org/1999/xlink"><title/><desc/><g fill="none" fill-rule="evenodd" id="origin_logo" stroke="none" stroke-width="1"><path d="M128.739342,5.67019799 C129.215333,6.93804923 128.392265,8.09810746 127.717944,9.07851065 C122.943158,16.085057 119.774346,24.2265099 118.277453,32.6492513 C118.04313,34.0474176 117.783148,34.2568698 118.065768,35.1864563 C118.51201,35.3558453 118.28737,35.2829941 118.743032,35.4262048 C128.009985,34.5843926 137.41081,34.7589147 146.53447,36.7761841 C163.134165,40.2358267 178.648998,48.9316437 190.573072,61.3632589 C202.462935,73.6670623 210.80815,89.6101634 214.184217,106.667126 C217.927689,125.135663 215.835311,144.795057 208.347871,161.995744 C192.471583,197.121383 165.707493,226.831192 132.958309,245.66366 C131.901708,246.171827 130.380024,246.192359 129.656121,245.104163 C128.802808,243.964637 129.154843,242.342608 129.997744,241.306255 C134.415537,234.925422 137.499563,227.590363 139.175448,219.942705 C139.497734,218.356608 139.939017,216.749465 139.805641,215.117684 C139.265192,214.388798 138.372709,214.609517 137.614098,214.635695 C121.717481,216.283389 105.360739,213.341666 90.9962184,206.073336 C75.6117876,198.398987 62.5567385,185.853932 53.9244406,170.603786 C45.9267976,156.575294 41.722209,140.236952 42.0142494,123.939674 C42.0687901,108.981596 46.0110877,94.1477363 52.9526253,81.0534507 C69.1115334,48.9362634 94.4828536,21.8340181 125.114868,4.32535172 C126.399052,3.58671288 128.298059,4.13543069 128.739342,5.67019799 Z M124.468106,90.2927096 C114.984483,91.6093836 106.236872,97.367069 100.925148,105.572503 C97.3301238,111.207313 95.151924,117.90122 95.1961842,124.677387 C94.927639,133.756834 98.4286725,142.852219 104.495804,149.391374 C109.797085,155.293014 117.162186,159.139183 124.885346,160.167433 C132.747752,161.241954 140.957775,159.339692 147.617198,154.871946 C154.385034,150.429392 159.542096,143.417242 161.850093,135.474011 C166.181627,121.685694 160.989754,105.531888 149.690964,97.0123228 C142.594906,91.4289257 133.290313,88.9508434 124.468106,90.2927096 Z" fill="#F15A23" fill-rule="nonzero" id="Shape"/></g></svg>

<svg xmlns="http://www.w3.org/2000/svg" width="250" height="250" viewBox="0 0 250 250"><path fill="#F15A23" d="M128.74 5.67c.475 1.268-.348 2.428-1.022 3.409-4.775 7.006-7.944 15.148-9.44 23.57-.235 1.398-.495 1.608-.212 2.537.446.17.221.097.677.24 9.267-.842 18.668-.667 27.791 1.35 16.6 3.46 32.115 12.156 44.04 24.587 11.889 12.304 20.234 28.247 23.61 45.304 3.744 18.469 1.651 38.128-5.836 55.329-15.876 35.125-42.64 64.835-75.39 83.668-1.056.508-2.578.528-3.302-.56-.853-1.14-.501-2.761.342-3.798 4.418-6.38 7.502-13.716 9.177-21.363.323-1.586.764-3.194.63-4.825-.54-.73-1.432-.508-2.19-.482-15.898 1.647-32.254-1.294-46.619-8.563-15.384-7.674-28.44-20.22-37.072-35.47-7.997-14.028-12.202-30.366-11.91-46.663.055-14.958 3.997-29.792 10.939-42.887 16.159-32.117 41.53-59.219 72.162-76.728 1.284-.738 3.183-.19 3.624 1.345m-4.272 84.623c-9.484 1.316-18.231 7.074-23.543 15.28-3.595 5.634-5.773 12.328-5.729 19.104-.268 9.08 3.233 18.175 9.3 24.714 5.301 5.902 12.666 9.748 20.39 10.776 7.862 1.075 16.072-.827 22.731-5.295 6.768-4.443 11.925-11.455 14.233-19.398 4.332-13.788-.86-29.942-12.159-38.462-7.096-5.583-16.4-8.061-25.223-6.72"/></svg>
